packages/nouns-webapp/src/assets/icons/VoteFailed.svg

<svg width="53" height="28" viewBox="0 0 53 28" fill="none" xmlns="http://www.w3.org/2000/svg">
<rect width="53" height="28" rx="8" fill="#D63C5E" fill-opacity="0.1"/>
<path d="M8.98 19H10.66V14.87H14.44V13.33H10.66V10.74H15.28V9.2H8.98V19ZM18.4704 19.14C18.9464 19.14 19.3664 19.0607 19.7304 18.902C20.0944 18.734 20.421 18.4867 20.7104 18.16H20.7384L20.8784 19H22.1384V12H20.5144V12.7H20.4864C20.2624 12.4387 19.9684 12.2333 19.6044 12.084C19.2497 11.9347 18.8717 11.86 18.4704 11.86C18.041 11.86 17.6444 11.9347 17.2804 12.084C16.9257 12.224 16.6177 12.4433 16.3564 12.742C16.1044 13.0313 15.9084 13.3953 15.7684 13.834C15.6284 14.2633 15.5584 14.7673 15.5584 15.346V15.654C15.5584 16.242 15.6284 16.7553 15.7684 17.194C15.9084 17.6233 16.1044 17.9827 16.3564 18.272C16.6084 18.5613 16.9117 18.7807 17.2664 18.93C17.6304 19.07 18.0317 19.14 18.4704 19.14ZM18.8904 17.656C18.3957 17.656 17.999 17.4927 17.7004 17.166C17.411 16.8393 17.2664 16.3353 17.2664 15.654V15.346C17.2664 14.646 17.411 14.1373 17.7004 13.82C17.9897 13.5027 18.3864 13.344 18.8904 13.344C19.385 13.344 19.777 13.5073 20.0664 13.834C20.365 14.1607 20.5144 14.66 20.5144 15.332V15.64C20.5144 16.34 20.3697 16.8533 20.0804 17.18C19.791 17.4973 19.3944 17.656 18.8904 17.656ZM24.0327 19H25.6567V12H24.0327V19ZM24.8447 11.16C25.1434 11.16 25.3907 11.062 25.5867 10.866C25.7921 10.6607 25.8947 10.4087 25.8947 10.11C25.8947 9.81133 25.7921 9.564 25.5867 9.368C25.3907 9.16267 25.1434 9.06 24.8447 9.06C24.5461 9.06 24.2941 9.16267 24.0887 9.368C23.8927 9.564 23.7947 9.81133 23.7947 10.11C23.7947 10.4087 23.8927 10.6607 24.0887 10.866C24.2941 11.062 24.5461 11.16 24.8447 11.16ZM27.6148 19H29.2388V9.2H27.6148V19ZM34.0668 19.14C34.9161 19.14 35.6115 18.9487 36.1528 18.566C36.7035 18.1833 37.0581 17.628 37.2168 16.9H35.5368C35.4435 17.1893 35.2661 17.4087 35.0048 17.558C34.7528 17.698 34.4168 17.768 33.9968 17.768C33.4648 17.768 33.0681 17.628 32.8068 17.348C32.5455 17.068 32.3915 16.62 32.3448 16.004H37.2868V15.416C37.2868 14.8373 37.2075 14.3287 37.0488 13.89C36.8995 13.4513 36.6801 13.0827 36.3908 12.784C36.1108 12.476 35.7655 12.2473 35.3548 12.098C34.9535 11.9393 34.5008 11.86 33.9968 11.86C33.4928 11.86 33.0355 11.9393 32.6248 12.098C32.2235 12.2473 31.8781 12.4713 31.5888 12.77C31.3088 13.0687 31.0895 13.4373 30.9308 13.876C30.7815 14.3053 30.7068 14.7953 30.7068 15.346V15.654C30.7068 16.214 30.7815 16.7087 30.9308 17.138C31.0895 17.5673 31.3135 17.9313 31.6028 18.23C31.8921 18.5287 32.2421 18.7573 32.6528 18.916C33.0728 19.0653 33.5441 19.14 34.0668 19.14ZM33.9968 13.232C34.5008 13.232 34.8835 13.358 35.1448 13.61C35.4061 13.8527 35.5695 14.2493 35.6348 14.8H32.3588C32.4335 14.2493 32.6015 13.8527 32.8628 13.61C33.1241 13.358 33.5021 13.232 33.9968 13.232ZM41.1373 19.14C41.604 19.14 42.0193 19.0607 42.3833 18.902C42.7473 18.7433 43.0693 18.5007 43.3493 18.174H43.3773L43.5173 19H44.7633V9.34H43.1533V12.784H43.1253C42.9107 12.532 42.626 12.3313 42.2713 12.182C41.9167 12.0327 41.5387 11.958 41.1373 11.958C40.7173 11.958 40.33 12.0327 39.9753 12.182C39.6207 12.322 39.3173 12.5367 39.0653 12.826C38.8133 13.1153 38.6173 13.4747 38.4773 13.904C38.3373 14.3333 38.2673 14.8327 38.2673 15.402V15.71C38.2673 16.2793 38.3327 16.7787 38.4633 17.208C38.6033 17.6373 38.7993 17.9967 39.0513 18.286C39.3033 18.5753 39.6067 18.79 39.9613 18.93C40.316 19.07 40.708 19.14 41.1373 19.14ZM41.5573 17.67C41.072 17.67 40.6847 17.5113 40.3953 17.194C40.106 16.8767 39.9613 16.382 39.9613 15.71V15.402C39.9613 14.7113 40.1013 14.212 40.3813 13.904C40.6613 13.5867 41.0533 13.428 41.5573 13.428C42.0427 13.428 42.43 13.5867 42.7193 13.904C43.0087 14.2213 43.1533 14.716 43.1533 15.388V15.696C43.1533 16.3867 43.0133 16.8907 42.7333 17.208C42.4533 17.516 42.0613 17.67 41.5573 17.67Z" fill="#D63C5E"/>
</svg>

<svg xmlns="http://www.w3.org/2000/svg" width="53" height="28" fill="none">
    <rect width="53" height="28" fill="#D63C5E" fill-opacity=".1" rx="8"/>
    <path fill="#D63C5E" d="M8.98 19h1.68v-4.13h3.78v-1.54h-3.78v-2.59h4.62V9.2h-6.3zm9.49.14q.714 0 1.26-.238.546-.252.98-.742h.028l.14.84h1.26v-7h-1.624v.7h-.028a2.3 2.3 0 0 0-.882-.616 2.9 2.9 0 0 0-1.134-.224q-.644 0-1.19.224-.531.21-.924.658-.378.434-.588 1.092-.21.644-.21 1.512v.308q0 .882.21 1.54.21.645.588 1.078.378.435.91.658.547.21 1.204.21m.42-1.484q-.741 0-1.19-.49-.434-.49-.434-1.512v-.308q0-1.05.434-1.526t1.19-.476q.742 0 1.176.49.448.49.448 1.498v.308q0 1.05-.434 1.54-.434.476-1.19.476M24.033 19h1.624v-7h-1.624zm.812-7.84q.448 0 .742-.294.308-.308.308-.756a.98.98 0 0 0-.308-.742.98.98 0 0 0-.742-.308 1.03 1.03 0 0 0-1.05 1.05q0 .448.294.756.307.294.756.294m2.77 7.84h1.624V9.2h-1.624zm6.452.14q1.274 0 2.086-.574.825-.574 1.064-1.666h-1.68q-.14.435-.532.658-.378.21-1.008.21-.798 0-1.19-.42-.393-.42-.462-1.344h4.942v-.588q0-.868-.238-1.526a2.9 2.9 0 0 0-.658-1.106 2.56 2.56 0 0 0-1.036-.686 3.7 3.7 0 0 0-1.358-.238q-.756 0-1.372.238-.602.224-1.036.672-.42.448-.658 1.106-.224.645-.224 1.47v.308q0 .84.224 1.484.238.644.672 1.092t1.05.686q.63.224 1.414.224m-.07-5.908q.755 0 1.148.378.391.365.49 1.19h-3.276q.112-.825.504-1.19.392-.378 1.134-.378m7.14 5.908q.7 0 1.246-.238t.966-.728h.028l.14.826h1.246V9.34h-1.61v3.444h-.028a2.24 2.24 0 0 0-.854-.602 2.9 2.9 0 0 0-1.134-.224q-.63 0-1.162.224-.532.21-.91.644t-.588 1.078-.21 1.498v.308q0 .855.196 1.498.21.645.588 1.078.379.434.91.644.532.21 1.176.21m.42-1.47q-.727 0-1.162-.476t-.434-1.484v-.308q0-1.036.42-1.498.42-.476 1.176-.476.729 0 1.162.476.434.476.434 1.484v.308q0 1.036-.42 1.512-.42.462-1.176.462"/>
</svg>
